packages/astro-components-stencil/src/icons/theaters.svg

<svg xmlns="http://www.w3.org/2000/svg" viewBox="0 0 24 24"><g xmlns="http://www.w3.org/2000/svg" id="theaters" fill-rule="nonzero">
            <path d="M18 4v1h-2V4c0-.55-.45-1-1-1H9c-.55 0-1 .45-1 1v1H6V4c0-.55-.45-1-1-1s-1 .45-1 1v16c0 .55.45 1 1 1s1-.45 1-1v-1h2v1c0 .55.45 1 1 1h6c.55 0 1-.45 1-1v-1h2v1c0 .55.45 1 1 1s1-.45 1-1V4c0-.55-.45-1-1-1s-1 .45-1 1zM8 17H6v-2h2v2zm0-4H6v-2h2v2zm0-4H6V7h2v2zm10 8h-2v-2h2v2zm0-4h-2v-2h2v2zm0-4h-2V7h2v2z"/>
        </g></svg>

<svg width="24" height="24" viewBox="0 0 24 24" fill="none" xmlns="http://www.w3.org/2000/svg">
<path fill-rule="evenodd" clip-rule="evenodd" d="M18 4V5H16V4C16 3.45 15.55 3 15 3H9C8.45 3 8 3.45 8 4V5H6V4C6 3.45 5.55 3 5 3C4.45 3 4 3.45 4 4V20C4 20.55 4.45 21 5 21C5.55 21 6 20.55 6 20V19H8V20C8 20.55 8.45 21 9 21H15C15.55 21 16 20.55 16 20V19H18V20C18 20.55 18.45 21 19 21C19.55 21 20 20.55 20 20V4C20 3.45 19.55 3 19 3C18.45 3 18 3.45 18 4ZM8 17H6V15H8V17ZM6 13H8V11H6V13ZM8 9H6V7H8V9ZM16 17H18V15H16V17ZM18 13H16V11H18V13ZM16 9H18V7H16V9Z" fill="black"/>
</svg>
